X: 915
T: Spanish Lady
C:Trad.
B: jims roots
B: nick
M:2/2
L:1/8
R: Polka
Q: 1/2=100
K:D
V:1 
%Z:Paul Hardy's Session Tunebook 2019 (see www.paulhardy.net). Creative Commons cc by-nc-sa licenced.
%Q:1/2=110
G/|"D"FA AB/c/|dd de/f/|"G"ge "D"fd|"A7"BA A/B/A/G/|
"D"FA AB/c/|dd de/f/|"G"ge "D"fd|"A7"BA A3/2:|
|:g/|"D"fa af|"G"ed d>e|"D"fa af|"Em"be e3/2g/|
"D"fa a/b/a/f/|"Bm"ed de/f/|"G"ge "D"fd|"A7"BA A3/2:|
% abcbook-tune_id 6298c287ad9d3e2105a8bcff


% abcbook-boost 0
% abcbook-tablature 
% abcbook-transpose 
% abcbook-lastupdated 1665491567263
% abcbook-soundfonts 
% abcbook-repeats 1


